Alemania/Otras categorias/1fc Saarbrucken.svg

<svg fill-rule="evenodd" height="841.89pt" viewBox="0 0 595.276 841.89" width="595.276pt" xmlns="http://www.w3.org/2000/svg"><path d="m298.723 692.7c-.006-.006-2.367-2.316-6.54-5.845-4.173-3.529-10.147-8.268-17.348-13.096-14.403-9.661-33.717-19.682-53.315-21.169-159.6714-12.112-205.6054-102.014-205.5825-167.965 0-20.445 4.4023-38.591 11.1997-51.425 36.4981-68.906 58.5757-103.432 58.5464-124.036.0063-14.983-8.6841-31.227-17.3955-43.703-8.709-12.477-17.397-21.164-17.4185-21.183l-.248-.249 124.6474-94.579.183.119c.013.009 4.441 2.928 11.928 7.33 7.488 4.403 18.018 10.28 30.184 16.167 24.334 11.777 55.225 23.599 81.371 23.813 39.235-.318 89.108-26.769 111.562-39.98 7.487-4.402 11.916-7.321 11.929-7.33l.179-.119 124.651 94.579-.249.249c-.015.023-8.709 8.706-17.418 21.183-8.712 12.476-17.401 28.72-17.397 43.703-.028 20.604 22.049 55.13 58.547 124.036 6.793 12.834 11.199 30.98 11.199 51.428.023 65.951-45.914 155.852-205.581 167.962-29.399 2.225-58.148 23.674-70.666 34.265-4.17 3.529-6.531 5.839-6.537 5.845l-.216.211z" fill="#1f211d"/><path d="m86.2993 309.164c-.0278 20.994-22.1391 55.4-58.6181 124.324-6.7378 12.721-11.1294 30.781-11.1294 51.137.0234 65.662 45.5791 155.213 205.0142 167.351 37.825 2.89 74.254 37.101 77.373 40.078 3.117-2.977 39.547-37.188 77.371-40.078 159.436-12.136 204.99-101.687 205.013-167.348 0-20.359-4.391-38.419-11.127-51.14-36.478-68.924-58.592-103.33-58.619-124.324.028-28.929 31.64-61.879 34.747-65.071l-123.745-93.891c-4.003 2.604-72.544 46.85-123.644 47.294-51.094-.444-119.634-44.69-123.638-47.294l-123.7443 93.893c3.1162 3.199 34.7163 36.144 34.7466 65.069z" fill="#fd0"/><path d="m555.997 472.555c-1.159-10.609-3.801-20.353-7.599-27.525-8.269-15.62-15.845-29.548-22.529-41.838-25.12-46.187-38.956-71.628-38.956-94.028 0-22.628 12.494-45.133 23.952-61.013l-89.805-68.141c-7.762 4.503-18.029 10.147-29.735 15.812-31.865 15.421-60 24.117-83.814 25.953v250.78z" fill="#00569f"/><path d="m290.367 221.775c-23.814-1.836-51.948-10.532-83.814-25.953-11.706-5.665-21.972-11.309-29.734-15.812l-89.8063 68.141c11.4575 15.88 23.9523 38.385 23.9523 61.013 0 22.399-13.8366 47.84-38.9552 94.026-6.6841 12.29-14.2598 26.219-22.5308 41.84-3.7974 7.172-6.439 16.916-7.5977 27.525h248.4857z" fill="#1f211d"/><path d="m333.101 486.983v151.997c14.228-6.692 28.065-10.589 41.341-11.598.341-.026.672-.059 1.012-.086v-140.313z" fill="#1f211d"/><path d="m388.439 626.066c15.026-1.673 29.158-4.145 42.351-7.4v-131.683h-42.351z" fill="#00569f"/><path d="m277.76 645.804c3.698 2.143 7.416 4.452 11.156 6.96 3.642 2.442 6.998 4.855 10.023 7.137 3.025-2.282 6.382-4.695 10.023-7.137 3.74-2.508 7.457-4.816 11.153-6.959v-158.822h-42.355z" fill="#00569f"/><path d="m541.368 543.738c12.121-21.976 14.992-42.995 15.268-56.755h-57.526v102.47c18.141-12.443 32.339-27.73 42.258-45.715z" fill="#00569f"/><path d="m222.424 486.983v140.314c.34.026.671.059 1.012.085 13.277 1.009 27.113 4.906 41.341 11.598v-151.997z" fill="#1f211d"/><path d="m111.749 486.983v110.499c12.598 7.044 26.732 12.945 42.352 17.641v-128.14z" fill="#1f211d"/><path d="m41.2427 486.983c.2749 13.76 3.1469 34.778 15.2671 56.754 9.9184 17.984 24.1152 33.271 42.2544 45.713v-102.467z" fill="#00569f"/><path d="m167.086 618.666c13.194 3.254 27.328 5.727 42.353 7.4v-139.083h-42.353z" fill="#00569f"/><path d="m443.775 486.983v128.14c15.62-4.695 29.755-10.596 42.353-17.64v-110.5z" fill="#1f211d"/><g fill="#fd0"><path d="m244.733 323.952s-24.537 17.525-19.278-14.788c2.82-17.337 28.916 4.271 28.916 4.271v-30.669l-12.267 7.009s-6.952-.096-11.394 0c-40.309.876-21.031 39.436-21.031 39.436h-18.402l.066-25.101 8.698 5.054 13.144-36.916-16.649 16.65-4.383-2.465v-35.216h49.951l30.668 17.526-15.772-31.545h-93.763l6.132 14.019v33.536s-14.54 1.858-22.781 5.898c-22.23 10.895-32.286 29.834-32.827 54.332-1.43 65.265 54.735 65.084 54.735 65.084s1.799 8.208 0 12.91c-1.397 3.637-6.135 7.89-6.135 7.89l29.792 20.153-.876-42.067s18.481-3.281 26.293-24.487c-17.855 7.255-27.169 5.581-27.169 5.581v-48.57h22.784s21.562 30.106 20.154 51.704c-2.629 40.309-24.536 19.278-24.536 19.278v27.159s60.464-21.9 39.433-70.974c-4.349-10.148-10.514-26.29-10.514-26.29l20.154 14.02zm-77.113 62.748s-32.451-4.165-31.549-39.964c1.147-45.417 31.549-44.303 31.549-44.303z"/><path d="m154.067 276.047c0-3.113 2.521-5.633 5.635-5.633 3.113 0 5.637 2.52 5.637 5.633 0 3.114-2.524 5.638-5.637 5.638-3.114 0-5.635-2.524-5.635-5.638z"/><path d="m147.02 240.542-18.316 17.19 2.254 4.227 6.481-3.101s-.501 14.264.283 19.447c1.41 9.298 8.679 4.451 13.809 2.533 0 0-7.048-16.906-.564-39.736.425-1.493-3.947-.56-3.947-.56z"/><path d="m465.942 253.372h-10.728v10.277h-10.274v10.725h10.274v10.276h10.728v-10.276h10.281v-10.725h-10.281z"/><path d="m518.673 438.38h-10.279v-10.28h-10.722v10.28h-10.28v10.728h10.28v10.28h10.722v-10.28h10.279z"/><path d="m340.374 382.519h-10.728v10.277h-10.274v10.728h10.274v10.276h10.728v-10.276h10.279v-10.728h-10.279z"/><path d="m347.523 228.42h-10.727v10.276h-10.274v10.725h10.274v10.277h10.727v-10.277h10.281v-10.725h-10.281z"/><path d="m395.3 275.201c-1.799-7.021-10.827-.093-18.036-4.508-13.806-8.454-11.276.847-11.276.847s4.751 7.925 8.455 6.198c22.035-10.251 22.886 5.403 20.857-2.537z"/><path d="m401.778 247.866 17.476 8.455 9.864-3.38-9.864-1.691-2.254-9.301-9.022 3.947-7.604-7.891z"/><path d="m406.008 375.247-3.948-6.201-6.477 7.891-12.969 4.791-16.058 18.316 5.633 2.537.284 9.018-7.328 11.555s-11.823 6.066-8.738 3.944c14.372-9.865 11.275-19.726 11.275-19.726s-7.045 12.962-14.939 13.529c-2.09.148-5.351-.567-5.351-.567l-3.664 5.917-5.074.847-2.537 4.785h4.514l3.658 6.207.282 3.387 5.076-.567 5.073-7.328 7.045-1.133 6.477 1.977 6.768-3.097 4.507-5.078 7.612-.279 2.253-3.945 7.328 1.127-1.127-20.293 13.521-14.652.851-6.481z"/><path d="m445.573 309.164c-3.551 8.781 2.306 24.175 2.306 24.175l7.513 23.104s3.466 35.236-24.837 6.929c-9.404-9.4-17.331-33.499-17.331-33.499l-10.393 1.153 3.468-10.395 4.618 6.352 5.2-13.862 7.505-7.509-.579-10.398 5.778.58-1.732-4.046-2.307-9.242 3.46-9.243-.573-8.085-5.2-.577-1.734-5.776-3.465 4.043-3.466-5.776-13.864-6.353-3.462 2.887 4.621 4.623-9.246-1.733-6.352 5.196 2.886 5.199 8.091.576s13.194 19.832-5.778 17.329c-2.056-.271-1.153 5.199-1.153 5.199l14.438 1.156-15.018 8.666-11.552-1.157-13.285 1.733 2.313 5.776-8.666 2.975 2.886-12.217s-21.099-8.336-19.637-15.018c.876-3.993 8.336-2.603 8.085-6.685-.638-10.185-7.636-7.638-7.636-7.638l-10.189 9.549s2.643-9.743-1.476-10.82c-4.448-1.164-5.535 10.395-5.535 10.395s-3.19 3.274-2.886 5.776c.5 4.125 10.398 2.31 10.398 2.31l1.735 9.245 9.818 9.238 2.306 5.865 8.664 2.801-4.038 7.509 6.352 4.043-2.886 6.932 7.506 2.31-4.047 2.31 4.047 2.313 9.818-9.242-6.352-2.89 6.933-9.819-.581-4.043h5.2v4.043l-5.78 6.933h10.979s-23.439 29.901-36.969 32.346c-4.072.734-7.505-7.509-7.505-7.509l-5.2 5.776-6.933-2.31-4.039 4.62 3.46 5.198-.574 6.933 5.774 1.153 6.359-5.199 8.658 5.779 5.78-6.932h6.352l5.199-6.932 6.353-2.31 4.039-5.776h11.553l-2.307-8.666 11.552 2.313-2.313 5.776-8.665 6.353s12.191 3.578 20.217 4.043c16.876.975 12.131 40.435 12.131 40.435l4.62 6.352 3.308 8.932 11.13-.846 12.132 4.622 4.619 16.752-3.465 4.625-8.086-4.625-2.886 5.192-5.2 4.046 1.153 4.626 12.132-2.319-4.046 5.786 5.199 3.466 5.199-5.206 6.933-8.08 4.039 4.614 5.779-.58-5.199-8.079v-5.773l-1.153-14.445 6.352-6.932-8.085-2.31-4.046-7.509-14.438-8.662s-.455-7.305 5.773-8.669c30.266-6.616 6.814-47.941 6.814-47.941s-7.388-25.328-.1-25.328c2.149 0 6.998 2.363 8.296 16.112.923 9.78 6.209 16.261 7.52 12.683 1.726-4.735 4.712-8.119 4.553-12.429-.724-19.749-20.632-33.762-27.657-16.366zm-42.7-39.241h.003 2.204c.006 2.811.492 4.505 1.016 6.149.519 1.629 1.12 3.267 1.116 5.57.002.687-.051 1.427-.164 2.245l-2.187-.306c.102-.726.146-1.365.146-1.939-.002-1.914-.469-3.194-1.014-4.898-.545-1.694-1.124-3.75-1.12-6.821zm-3.335 34.73-.683-.777 4.137-4.142 3.818 1.27 2.776-2.428 4.015-5.629v10.789l-4.18 2.325-4.486 4.739z"/></g></svg>

<?xml version="1.0" encoding="UTF-8" standalone="yes"?>
<!-- Created with sK1/UniConvertor (http://sk1project.org/) -->
<svg xmlns="http://www.w3.org/2000/svg" xmlns:xlink="http://www.w3.org/1999/xlink"
  width="595.276pt" height="841.89pt" viewBox="0 0 595.276 841.89"
  fill-rule="evenodd">
<g>
<path style="stroke:none; fill:#1f211d" d="M 298.723 692.7C 298.717 692.694 296.356 690.384 292.183 686.855L 292.183 686.855C 288.01 683.326 282.036 678.587 274.835 673.759L 274.835 673.759C 260.432 664.098 241.118 654.077 221.52 652.59L 221.52 652.59C 61.8486 640.478 15.9146 550.576 15.9375 484.625L 15.9375 484.625C 15.9375 464.18 20.3398 446.034 27.1372 433.2L 27.1372 433.2C 63.6353 364.294 85.7129 329.768 85.6836 309.164L 85.6836 309.164C 85.6899 294.181 76.9995 277.937 68.2881 265.461L 68.2881 265.461C 59.5791 252.984 50.8911 244.297 50.8696 244.278L 50.8696 244.278L 50.6216 244.029L 175.269 149.45L 175.452 149.569C 175.465 149.578 179.893 152.497 187.38 156.899L 187.38 156.899C 194.868 161.302 205.398 167.179 217.564 173.066L 217.564 173.066C 241.898 184.843 272.789 196.665 298.935 196.879L 298.935 196.879C 338.17 196.561 388.043 170.11 410.497 156.899L 410.497 156.899C 417.984 152.497 422.413 149.578 422.426 149.569L 422.426 149.569L 422.605 149.45L 547.256 244.029L 547.007 244.278C 546.992 244.301 538.298 252.984 529.589 265.461L 529.589 265.461C 520.877 277.937 512.188 294.181 512.192 309.164L 512.192 309.164C 512.164 329.768 534.241 364.294 570.739 433.2L 570.739 433.2C 577.532 446.034 581.938 464.18 581.938 484.628L 581.938 484.628C 581.961 550.579 536.024 640.48 376.357 652.59L 376.357 652.59C 346.958 654.815 318.209 676.264 305.691 686.855L 305.691 686.855C 301.521 690.384 299.16 692.694 299.154 692.7L 299.154 692.7L 298.938 692.911L 298.723 692.7L 298.723 692.7z"/>
<path style="stroke:none; fill:#ffdd00" d="M 86.2993 309.164C 86.2715 330.158 64.1602 364.564 27.6812 433.488L 27.6812 433.488C 20.9434 446.209 16.5518 464.269 16.5518 484.625L 16.5518 484.625C 16.5752 550.287 62.1309 639.838 221.566 651.976L 221.566 651.976C 259.391 654.866 295.82 689.077 298.939 692.054L 298.939 692.054C 302.056 689.077 338.486 654.866 376.31 651.976L 376.31 651.976C 535.746 639.84 581.3 550.289 581.323 484.628L 581.323 484.628C 581.323 464.269 576.932 446.209 570.196 433.488L 570.196 433.488C 533.718 364.564 511.604 330.158 511.577 309.164L 511.577 309.164C 511.605 280.235 543.217 247.285 546.324 244.093L 546.324 244.093L 422.579 150.202C 418.576 152.806 350.035 197.052 298.935 197.496L 298.935 197.496C 247.841 197.052 179.301 152.806 175.297 150.202L 175.297 150.202L 51.5527 244.095C 54.6689 247.294 86.269 280.239 86.2993 309.164L 86.2993 309.164z"/>
<path style="stroke:none; fill:#00569f" d="M 555.997 472.555C 554.838 461.946 552.196 452.202 548.398 445.03C 540.129 429.41 532.553 415.482 525.869 403.192C 500.749 357.005 486.913 331.564 486.913 309.164C 486.913 286.536 499.407 264.031 510.865 248.151L 421.06 180.01C 413.298 184.513 403.031 190.157 391.325 195.822C 359.46 211.243 331.325 219.939 307.511 221.775L 307.511 472.555L 555.997 472.555z"/>
<path style="stroke:none; fill:#1f211d" d="M 290.367 221.775C 266.553 219.939 238.419 211.243 206.553 195.822C 194.847 190.157 184.581 184.513 176.819 180.01L 87.0127 248.151C 98.4702 264.031 110.965 286.536 110.965 309.164C 110.965 331.563 97.1284 357.004 72.0098 403.19C 65.3257 415.48 57.75 429.409 49.479 445.03C 45.6816 452.202 43.04 461.946 41.8813 472.555L 290.367 472.555L 290.367 221.775z"/>
<path style="stroke:none; fill:#1f211d" d="M 333.101 486.983L 333.101 638.98C 347.329 632.288 361.166 628.391 374.442 627.382C 374.783 627.356 375.114 627.323 375.454 627.296L 375.454 486.983L 333.101 486.983z"/>
<path style="stroke:none; fill:#00569f" d="M 388.439 626.066C 403.465 624.393 417.597 621.921 430.79 618.666L 430.79 486.983L 388.439 486.983L 388.439 626.066z"/>
<path style="stroke:none; fill:#00569f" d="M 277.76 645.804C 281.458 647.947 285.176 650.256 288.916 652.764C 292.558 655.206 295.914 657.619 298.939 659.901C 301.964 657.619 305.321 655.206 308.962 652.764C 312.702 650.256 316.419 647.948 320.115 645.805L 320.115 486.983L 277.76 486.983L 277.76 645.804z"/>
<path style="stroke:none; fill:#00569f" d="M 541.368 543.738C 553.489 521.762 556.36 500.743 556.636 486.983L 499.11 486.983L 499.11 589.453C 517.251 577.01 531.449 561.723 541.368 543.738z"/>
<path style="stroke:none; fill:#1f211d" d="M 222.424 486.983L 222.424 627.297C 222.764 627.323 223.095 627.356 223.436 627.382C 236.713 628.391 250.549 632.288 264.777 638.98L 264.777 486.983L 222.424 486.983z"/>
<path style="stroke:none; fill:#1f211d" d="M 111.749 486.983L 111.749 597.482C 124.347 604.526 138.481 610.427 154.101 615.123L 154.101 486.983L 111.749 486.983z"/>
<path style="stroke:none; fill:#00569f" d="M 41.2427 486.983C 41.5176 500.743 44.3896 521.761 56.5098 543.737C 66.4282 561.721 80.625 577.008 98.7642 589.45L 98.7642 486.983L 41.2427 486.983z"/>
<path style="stroke:none; fill:#00569f" d="M 167.086 618.666C 180.28 621.92 194.414 624.393 209.439 626.066L 209.439 486.983L 167.086 486.983L 167.086 618.666z"/>
<path style="stroke:none; fill:#1f211d" d="M 443.775 486.983L 443.775 615.123C 459.395 610.428 473.53 604.527 486.128 597.483L 486.128 486.983L 443.775 486.983z"/>
<path style="stroke:none; fill:#ffdd00" d="M 244.733 323.952C 244.733 323.952 220.196 341.477 225.455 309.164C 228.275 291.827 254.371 313.435 254.371 313.435L 254.371 282.766L 242.104 289.775C 242.104 289.775 235.152 289.679 230.71 289.775C 190.401 290.651 209.679 329.211 209.679 329.211L 191.277 329.211L 191.343 304.11L 200.041 309.164L 213.185 272.248L 196.536 288.898L 192.153 286.433L 192.153 251.217L 242.104 251.217L 272.772 268.743L 257 237.198L 163.237 237.198L 169.369 251.217L 169.369 284.753C 169.369 284.753 154.829 286.611 146.588 290.651C 124.358 301.546 114.302 320.485 113.761 344.983C 112.331 410.248 168.496 410.067 168.496 410.067C 168.496 410.067 170.295 418.275 168.496 422.977C 167.099 426.614 162.361 430.867 162.361 430.867L 192.153 451.02L 191.277 408.953C 191.277 408.953 209.758 405.672 217.57 384.466C 199.715 391.721 190.401 390.047 190.401 390.047L 190.401 341.477L 213.185 341.477C 213.185 341.477 234.747 371.583 233.339 393.181C 230.71 433.49 208.803 412.459 208.803 412.459L 208.803 439.618C 208.803 439.618 269.267 417.718 248.236 368.644C 243.887 358.496 237.722 342.354 237.722 342.354L 257.876 356.374L 244.733 323.952zM 167.62 386.7C 167.62 386.7 135.169 382.535 136.071 346.736C 137.218 301.319 167.62 302.433 167.62 302.433L 167.62 386.7z"/>
<path style="stroke:none; fill:#ffdd00" d="M 154.067 276.047C 154.067 272.934 156.588 270.414 159.702 270.414C 162.815 270.414 165.339 272.934 165.339 276.047C 165.339 279.161 162.815 281.685 159.702 281.685C 156.588 281.685 154.067 279.161 154.067 276.047L 154.067 276.047z"/>
<path style="stroke:none; fill:#ffdd00" d="M 147.02 240.542L 128.704 257.732L 130.958 261.959L 137.439 258.858C 137.439 258.858 136.938 273.122 137.722 278.305C 139.132 287.603 146.401 282.756 151.531 280.838C 151.531 280.838 144.483 263.932 150.967 241.102C 151.392 239.609 147.02 240.542 147.02 240.542L 147.02 240.542z"/>
<path style="stroke:none; fill:#ffdd00" d="M 465.942 253.372L 455.214 253.372L 455.214 263.649L 444.94 263.649L 444.94 274.374L 455.214 274.374L 455.214 284.65L 465.942 284.65L 465.942 274.374L 476.223 274.374L 476.223 263.649L 465.942 263.649L 465.942 253.372z"/>
<path style="stroke:none; fill:#ffdd00" d="M 518.673 438.38L 508.394 438.38L 508.394 428.1L 497.672 428.1L 497.672 438.38L 487.392 438.38L 487.392 449.108L 497.672 449.108L 497.672 459.388L 508.394 459.388L 508.394 449.108L 518.673 449.108L 518.673 438.38z"/>
<path style="stroke:none; fill:#ffdd00" d="M 340.374 382.519L 329.646 382.519L 329.646 392.796L 319.372 392.796L 319.372 403.524L 329.646 403.524L 329.646 413.8L 340.374 413.8L 340.374 403.524L 350.653 403.524L 350.653 392.796L 340.374 392.796L 340.374 382.519z"/>
<path style="stroke:none; fill:#ffdd00" d="M 347.523 228.42L 336.796 228.42L 336.796 238.696L 326.522 238.696L 326.522 249.421L 336.796 249.421L 336.796 259.698L 347.523 259.698L 347.523 249.421L 357.804 249.421L 357.804 238.696L 347.523 238.696L 347.523 228.42z"/>
<path style="stroke:none; fill:#ffdd00" d="M 395.3 275.201C 393.501 268.18 384.473 275.108 377.264 270.693C 363.458 262.239 365.988 271.54 365.988 271.54C 365.988 271.54 370.739 279.465 374.443 277.738C 396.478 267.487 397.329 283.141 395.3 275.201L 395.3 275.201z"/>
<path style="stroke:none; fill:#ffdd00" d="M 401.778 247.866L 419.254 256.321L 429.118 252.941L 419.254 251.25L 417 241.949L 407.978 245.896L 400.374 238.005L 401.778 247.866L 401.778 247.866z"/>
<path style="stroke:none; fill:#ffdd00" d="M 406.008 375.247L 402.06 369.046L 395.583 376.937L 382.614 381.728L 366.556 400.044L 372.189 402.581L 372.473 411.599L 365.145 423.154C 365.145 423.154 353.322 429.22 356.407 427.098C 370.779 417.233 367.682 407.372 367.682 407.372C 367.682 407.372 360.637 420.334 352.743 420.901C 350.653 421.049 347.392 420.334 347.392 420.334L 343.728 426.251L 338.654 427.098L 336.117 431.883L 340.631 431.883L 344.289 438.09L 344.571 441.477L 349.647 440.91L 354.72 433.582L 361.765 432.449L 368.242 434.426L 375.01 431.329L 379.517 426.251L 387.129 425.972L 389.382 422.027L 396.71 423.154L 395.583 402.861L 409.104 388.209L 409.955 381.728L 406.008 375.247L 406.008 375.247z"/>
<path style="stroke:none; fill:#ffdd00" d="M 445.573 309.164C 442.022 317.945 447.879 333.339 447.879 333.339L 455.392 356.443C 455.392 356.443 458.858 391.679 430.555 363.372C 421.151 353.972 413.224 329.873 413.224 329.873L 402.831 331.026L 406.299 320.631L 410.917 326.983L 416.117 313.121L 423.622 305.612L 423.043 295.214L 428.821 295.794L 427.089 291.748L 424.782 282.506L 428.242 273.263L 427.669 265.178L 422.469 264.601L 420.735 258.825L 417.27 262.868L 413.804 257.092L 399.94 250.739L 396.478 253.626L 401.099 258.249L 391.853 256.516L 385.501 261.712L 388.387 266.911L 396.478 267.487C 396.478 267.487 409.672 287.319 390.7 284.816C 388.644 284.545 389.547 290.015 389.547 290.015L 403.985 291.171L 388.967 299.837L 377.415 298.68L 364.13 300.413L 366.443 306.189L 357.777 309.164L 360.663 296.947C 360.663 296.947 339.564 288.611 341.026 281.929C 341.902 277.936 349.362 279.326 349.111 275.244C 348.473 265.059 341.475 267.606 341.475 267.606L 331.286 277.155C 331.286 277.155 333.929 267.412 329.81 266.335C 325.362 265.171 324.275 276.73 324.275 276.73C 324.275 276.73 321.085 280.004 321.389 282.506C 321.889 286.631 331.787 284.816 331.787 284.816L 333.522 294.061L 343.34 303.299L 345.646 309.164L 354.31 311.965L 350.272 319.474L 356.624 323.517L 353.738 330.449L 361.244 332.759L 357.197 335.069L 361.244 337.382L 371.062 328.14L 364.71 325.25L 371.643 315.431L 371.062 311.388L 376.262 311.388L 376.262 315.431L 370.482 322.364L 381.461 322.364C 381.461 322.364 358.022 352.265 344.492 354.71C 340.42 355.444 336.987 347.201 336.987 347.201L 331.787 352.977L 324.854 350.667L 320.815 355.287L 324.275 360.485L 323.701 367.418L 329.475 368.571L 335.834 363.372L 344.492 369.151L 350.272 362.219L 356.624 362.219L 361.823 355.287L 368.176 352.977L 372.215 347.201L 383.768 347.201L 381.461 338.535L 393.013 340.848L 390.7 346.624L 382.035 352.977C 382.035 352.977 394.226 356.555 402.252 357.02C 419.128 357.995 414.383 397.455 414.383 397.455L 419.003 403.807L 422.311 412.739L 433.441 411.893L 445.573 416.515L 450.192 433.267L 446.727 437.892L 438.641 433.267L 435.755 438.459L 430.555 442.505L 431.708 447.131L 443.84 444.812L 439.794 450.598L 444.993 454.064L 450.192 448.858L 457.125 440.778L 461.164 445.392L 466.943 444.812L 461.744 436.733L 461.744 430.96L 460.591 416.515L 466.943 409.583L 458.858 407.273L 454.812 399.764L 440.374 391.102C 440.374 391.102 439.919 383.797 446.147 382.433C 476.413 375.817 452.961 334.492 452.961 334.492C 452.961 334.492 445.573 309.164 452.861 309.164C 455.01 309.164 459.859 311.527 461.157 325.276C 462.08 335.056 467.366 341.537 468.677 337.959C 470.403 333.224 473.389 329.84 473.23 325.53C 472.506 305.781 452.598 291.768 445.573 309.164zM 402.873 269.923L 402.876 269.923L 405.08 269.923C 405.086 272.734 405.572 274.428 406.096 276.072C 406.615 277.701 407.216 279.339 407.212 281.642C 407.214 282.329 407.161 283.069 407.048 283.887L 404.861 283.581C 404.963 282.855 405.007 282.216 405.007 281.642C 405.005 279.728 404.538 278.448 403.993 276.744C 403.448 275.05 402.869 272.994 402.873 269.923zM 399.538 304.653L 398.855 303.876L 402.992 299.734L 406.81 301.004L 409.586 298.576L 413.601 292.947L 413.601 303.736L 409.421 306.061L 404.935 310.8L 399.538 304.653z"/>
</g>
</svg>
